public/static/img/assets/cash_icon.svg

<svg width="24" height="24" viewBox="0 0 24 24" fill="none" xmlns="http://www.w3.org/2000/svg">
<path d="M20.1766 0.224609H7.05156C5.77656 0.224609 4.72656 1.27461 4.72656 2.54961V3.29961H4.05156C2.77656 3.29961 1.72656 4.34961 1.72656 5.62461V21.3746C1.72656 22.6496 2.77656 23.6996 4.05156 23.6996H17.1766C18.4516 23.6996 19.5016 22.6496 19.5016 21.3746V20.6246H20.1766C21.4516 20.6246 22.5016 19.5746 22.5016 18.2996V2.54961C22.4266 1.27461 21.4516 0.224609 20.1766 0.224609ZM18.0016 21.3746C18.0016 21.8246 17.6266 22.1996 17.1766 22.1996H4.05156C3.60156 22.1996 3.22656 21.8246 3.22656 21.3746V5.62461C3.22656 5.17461 3.60156 4.79961 4.05156 4.79961H17.1766C17.6266 4.79961 18.0016 5.17461 18.0016 5.62461V21.3746ZM20.9266 18.2996C20.9266 18.7496 20.5516 19.1246 20.1016 19.1246H19.4266V5.62461C19.4266 4.34961 18.3766 3.29961 17.1016 3.29961H6.07656V2.54961C6.07656 2.09961 6.45156 1.72461 6.90156 1.72461H20.0266C20.4766 1.72461 20.8516 2.09961 20.8516 2.54961L20.9266 18.2996Z" fill="#36394C"/>
<path d="M13.2758 13.5751C13.5758 13.5751 13.8758 13.3501 13.8758 13.0501C13.8758 12.7501 13.6508 12.4501 13.3508 12.4501H11.7758L13.5008 10.2001C13.7258 9.97511 13.6508 9.60011 13.4258 9.37511C13.2008 9.15011 12.8258 9.22511 12.6008 9.45011L10.7258 11.9251L8.92578 9.52511C8.77578 9.30011 8.40078 9.22511 8.17578 9.45011C7.95078 9.60011 7.87578 9.97511 8.10078 10.2001L9.75078 12.3751H8.10078C7.80078 12.3751 7.50078 12.6001 7.50078 12.9001C7.50078 13.2001 7.72578 13.5001 8.02578 13.5001H10.1258V14.7001H8.02578C7.72578 14.7001 7.42578 14.9251 7.42578 15.2251C7.42578 15.5251 7.65078 15.8251 7.95078 15.8251H10.0508V17.8501C10.0508 18.1501 10.2758 18.4501 10.5758 18.4501C10.8758 18.4501 11.1758 18.2251 11.1758 17.9251V15.9001H13.2758C13.5758 15.9001 13.8758 15.6751 13.8758 15.3751C13.8758 15.0751 13.6508 14.7751 13.3508 14.7751H11.2508V13.5751H13.2758Z" fill="#36394C"/>
</svg>

<svg width="24" height="24" viewBox="0 0 24 24" fill="none" xmlns="http://www.w3.org/2000/svg"><path d="M20.177.225H7.052A2.337 2.337 0 0 0 4.727 2.55v.75h-.675a2.337 2.337 0 0 0-2.325 2.325v15.75A2.337 2.337 0 0 0 4.052 23.7h13.125a2.337 2.337 0 0 0 2.325-2.325v-.75h.675a2.337 2.337 0 0 0 2.325-2.325V2.55c-.075-1.275-1.05-2.325-2.325-2.325zm-2.175 21.15c0 .45-.375.825-.825.825H4.052a.832.832 0 0 1-.825-.825V5.625c0-.45.375-.825.825-.825h13.125c.45 0 .825.375.825.825v15.75zm2.925-3.075c0 .45-.375.825-.825.825h-.675v-13.5A2.337 2.337 0 0 0 17.102 3.3H6.077v-.75c0-.45.375-.825.825-.825h13.125c.45 0 .825.375.825.825l.075 15.75z" fill="#36394C"/><path d="M13.276 13.575c.3 0 .6-.225.6-.525 0-.3-.225-.6-.525-.6h-1.575L13.5 10.2c.225-.225.15-.6-.075-.825-.225-.225-.6-.15-.825.075l-1.875 2.475-1.8-2.4c-.15-.225-.525-.3-.75-.075-.225.15-.3.525-.075.75l1.65 2.175H8.1c-.3 0-.6.225-.6.525 0 .3.225.6.525.6h2.1v1.2h-2.1c-.3 0-.6.225-.6.525 0 .3.225.6.525.6h2.1v2.025c0 .3.225.6.525.6.3 0 .6-.225.6-.525V15.9h2.1c.3 0 .6-.225.6-.525 0-.3-.225-.6-.525-.6h-2.1v-1.2h2.025z" fill="#36394C"/></svg>
